logos/protactor.svg

<?xml version="1.0" encoding="UTF-8" standalone="no"?>
<svg width="256px" height="256px" viewBox="0 0 256 256" version="1.1" xmlns="http://www.w3.org/2000/svg" xmlns:xlink="http://www.w3.org/1999/xlink" preserveAspectRatio="xMidYMid">
	<g>
		<path d="M256,128 C256,198.692 198.692,256 128,256 C57.308,256 0,198.692 0,128 C0,57.308 57.308,0 128,0 C198.692,0 256,57.308 256,128" fill="#E23237"></path>
		<path d="M255.9999,127.9999 C255.9999,127.5839 255.9729,127.1749 255.9689,126.7599 C230.3909,102.1019 204.5249,77.1269 203.7989,76.2679 C185.7669,54.9299 158.8079,41.3799 128.6839,41.3799 C74.3959,41.3799 30.3859,85.3899 30.3859,139.6779 C30.3859,147.1889 31.2559,154.4919 32.8519,161.5189 C68.4809,199.0539 101.6169,233.1899 126.4169,255.9599 C126.9459,255.9669 127.4689,255.9999 127.9999,255.9999 C198.6919,255.9999 255.9999,198.6929 255.9999,127.9999" fill="#B52E31"></path>
		<path d="M191.8717,138.2551 L66.0067,138.2551 C66.0057,138.0841 65.9947,137.9161 65.9947,137.7451 C65.9947,102.9811 94.1757,74.8001 128.9397,74.8001 C163.7027,74.8001 191.8847,102.9811 191.8847,137.7451 C191.8847,137.9161 191.8727,138.0841 191.8717,138.2551 L191.8717,138.2551 Z M206.7657,135.4061 L226.8747,135.4061 C225.7927,110.1141 215.1627,87.3001 198.4857,70.4781 L184.5997,84.3651 L181.2417,81.0081 L195.0627,67.1871 C178.0317,51.5841 155.4827,41.9271 130.6827,41.4301 L130.6827,59.3231 L125.9347,59.3231 L125.9347,41.4491 C101.1197,42.1331 78.6087,51.9981 61.6747,67.7891 L74.3167,80.4311 L70.9597,83.7881 L58.2817,71.1101 C41.9557,87.8701 31.5637,110.4251 30.4937,135.4061 L48.9027,135.4061 L48.9027,140.1541 L30.3997,140.1541 C30.4357,147.4961 31.2897,154.6411 32.8517,161.5191 L224.5177,161.5191 C226.0787,154.6411 226.9337,147.4961 226.9697,140.1541 L206.7657,140.1541 L206.7657,135.4061 Z" fill="#FFFFFF"></path>
	</g>
</svg>

<svg width="256" height="256" xmlns="http://www.w3.org/2000/svg" preserveAspectRatio="xMidYMid">
	<path d="M256 128c0 70.692-57.308 128-128 128C57.308 256 0 198.692 0 128 0 57.308 57.308 0 128 0c70.692 0 128 57.308 128 128" fill="#E23237"/>
	<path d="M256 128c0-.416-.027-.825-.031-1.24-25.578-24.658-51.444-49.633-52.17-50.492-18.032-21.338-44.991-34.888-75.115-34.888-54.288 0-98.298 44.01-98.298 98.298 0 7.51.87 14.814 2.466 21.84 35.629 37.536 68.765 71.672 93.565 94.442.529.007 1.052.04 1.583.04 70.692 0 128-57.307 128-128" fill="#B52E31"/>
	<path d="M191.872 138.255H66.007c-.001-.17-.012-.339-.012-.51 0-34.764 28.18-62.945 62.945-62.945 34.763 0 62.945 28.181 62.945 62.945 0 .171-.012.34-.013.51Zm14.894-2.849h20.109c-1.082-25.292-11.712-48.106-28.39-64.928L184.6 84.365l-3.358-3.357 13.82-13.82c-17.03-15.604-39.58-25.26-64.38-25.758v17.893h-4.747V41.45c-24.815.684-47.326 10.55-64.26 26.34l12.642 12.642-3.357 3.357L58.282 71.11c-16.326 16.76-26.718 39.315-27.788 64.296h18.409v4.748H30.4a98.54 98.54 0 0 0 2.452 21.365h191.666a98.602 98.602 0 0 0 2.452-21.365h-20.204v-4.748Z" fill="#FFF"/>
</svg>
